X: 98
T: A Bhriogais Uallach
R: three-two
M: 3/2
K: Amixolydian
|:AAAB A2AB AGd2|deee c2Bc dcB2|deee A2AB AGd2|[M:C] eAA2 (G2G)A BA(A2A4):|
[M:3/2]|:aeee edde eeg2|gaaa f2ef gfe2|deAB GAAA Bde2|[M:C]gAA2 (G2G)A Bd(A2A4):|

